packages/dnb-eufemia/assets/icons/person_shield.svg

<svg width="16" height="16" viewBox="0 0 16 16" fill="none" xmlns="http://www.w3.org/2000/svg">
<path d="M5.78614 12.5242C6.18315 12.6423 6.60075 12.4162 6.71886 12.0192C6.83698 11.6222 6.61088 11.2046 6.21386 11.0865L5.78614 12.5242ZM0.956735 14.9184C0.911673 15.3302 1.20894 15.7005 1.62069 15.7455C2.03245 15.7906 2.40277 15.4933 2.44783 15.0816L0.956735 14.9184ZM10 10.3333H10.75L10.75 10.3283L10 10.3333ZM10 11.9954H9.25001V11.9954L10 11.9954ZM12.2238 14.9211L11.9569 15.622L12.2238 14.9211ZM12.7762 14.9211L13.0431 15.622L12.7762 14.9211ZM15 11.9954L15.75 11.9954V11.9954H15ZM15 10.3333L14.25 10.3283V10.3333H15ZM14.7774 9.98721L15.0873 9.30423C15.016 9.27188 14.9401 9.25089 14.8623 9.24203L14.7774 9.98721ZM12.5 9L12.9768 8.42105C12.6998 8.19298 12.3002 8.19298 12.0232 8.42106L12.5 9ZM10.2226 9.98721L10.1377 9.24203C10.0599 9.25089 9.98399 9.27188 9.91269 9.30423L10.2226 9.98721ZM8.25 5C8.25 6.79493 6.79493 8.25 5 8.25V9.75C7.62335 9.75 9.75 7.62335 9.75 5H8.25ZM5 8.25C3.20507 8.25 1.75 6.79493 1.75 5H0.25C0.25 7.62335 2.37665 9.75 5 9.75V8.25ZM1.75 5C1.75 3.20507 3.20507 1.75 5 1.75V0.25C2.37665 0.25 0.25 2.37665 0.25 5H1.75ZM5 1.75C6.79493 1.75 8.25 3.20507 8.25 5H9.75C9.75 2.37665 7.62335 0.25 5 0.25V1.75ZM5.00001 12.4167C5.29565 12.4167 5.55659 12.4559 5.78614 12.5242L6.21386 11.0865C5.83544 10.9739 5.4296 10.9167 5.00001 10.9167V12.4167ZM2.44783 15.0816C2.53863 14.2519 2.82091 13.5831 3.2367 13.1325C3.63867 12.697 4.20805 12.4167 5.00001 12.4167V10.9167C3.80997 10.9167 2.834 11.3571 2.13436 12.1153C1.44855 12.8584 1.07297 13.8563 0.956735 14.9184L2.44783 15.0816ZM9.25001 10.3333V11.9954H10.75V10.3333H9.25001ZM11.9569 15.622C12.0167 15.6448 12.096 15.6754 12.1692 15.6977C12.2519 15.7229 12.3646 15.75 12.5 15.75C12.6354 15.75 12.7481 15.7229 12.8308 15.6977C12.904 15.6754 12.9833 15.6448 13.0431 15.622L12.5092 14.2202C12.4917 14.2269 12.4766 14.2326 12.4626 14.2379C12.4487 14.2432 12.4371 14.2475 12.4269 14.2512C12.4168 14.2549 12.4092 14.2576 12.4034 14.2596C12.3976 14.2616 12.3946 14.2626 12.3936 14.2628C12.3913 14.2636 12.4017 14.2602 12.4206 14.2568C12.4303 14.2551 12.4423 14.2533 12.456 14.252C12.4699 14.2507 12.4846 14.25 12.5 14.25C12.5154 14.25 12.5301 14.2507 12.544 14.252C12.5577 14.2533 12.5697 14.2551 12.5794 14.2568C12.5983 14.2602 12.6087 14.2636 12.6064 14.2628C12.6054 14.2626 12.6024 14.2616 12.5966 14.2596C12.5908 14.2576 12.5832 14.2549 12.5731 14.2512C12.5629 14.2475 12.5513 14.2432 12.5374 14.2379C12.5234 14.2326 12.5083 14.2269 12.4908 14.2202L11.9569 15.622ZM15.75 11.9954V10.3333H14.25V11.9954H15.75ZM14.8623 9.24203C14.3705 9.18603 13.8987 8.98704 13.533 8.78426C13.354 8.68496 13.2094 8.58977 13.1114 8.52081C13.0626 8.48647 13.0259 8.45903 13.0028 8.44136C12.9913 8.43253 12.9833 8.42618 12.9788 8.42267C12.9766 8.42091 12.9753 8.41987 12.975 8.41958C12.9748 8.41944 12.9749 8.41949 12.9752 8.41973C12.9753 8.41985 12.9755 8.42002 12.9758 8.42024C12.9759 8.42035 12.9761 8.42047 12.9762 8.42061C12.9763 8.42068 12.9765 8.42079 12.9765 8.42082C12.9766 8.42094 12.9768 8.42105 12.5 9C12.0232 9.57895 12.0234 9.57907 12.0235 9.5792C12.0236 9.57924 12.0237 9.57937 12.0239 9.57947C12.0241 9.57965 12.0243 9.57985 12.0246 9.58007C12.0251 9.58049 12.0257 9.58097 12.0263 9.5815C12.0276 9.58255 12.0292 9.58381 12.031 9.58527C12.0346 9.58819 12.0392 9.59191 12.0448 9.59638C12.056 9.6053 12.0712 9.61724 12.0902 9.63179C12.1281 9.66086 12.1813 9.70052 12.2482 9.74759C12.3817 9.84146 12.5717 9.96635 12.8055 10.096C13.2657 10.3512 13.9325 10.6458 14.6926 10.7324L14.8623 9.24203ZM12.5 9C12.0232 8.42106 12.0234 8.42094 12.0235 8.42083C12.0235 8.42079 12.0237 8.42068 12.0238 8.42061C12.0239 8.42048 12.0241 8.42036 12.0242 8.42025C12.0245 8.42002 12.0247 8.41985 12.0248 8.41973C12.0251 8.41949 12.0252 8.41944 12.025 8.41958C12.0247 8.41987 12.0234 8.42091 12.0212 8.42267C12.0167 8.42618 12.0087 8.43253 11.9972 8.44136C11.9741 8.45903 11.9374 8.48647 11.8886 8.52082C11.7906 8.58977 11.646 8.68496 11.467 8.78426C11.1013 8.98704 10.6295 9.18603 10.1377 9.24203L10.3074 10.7324C11.0675 10.6458 11.7343 10.3512 12.1945 10.096C12.4283 9.96635 12.6183 9.84146 12.7518 9.74759C12.8187 9.70052 12.8719 9.66086 12.9098 9.63179C12.9288 9.61724 12.944 9.6053 12.9552 9.59637C12.9608 9.59191 12.9654 9.58819 12.969 9.58527C12.9708 9.58381 12.9724 9.58255 12.9737 9.58149C12.9743 9.58097 12.9749 9.58049 12.9754 9.58006C12.9757 9.57985 12.9759 9.57965 12.9762 9.57946C12.9763 9.57937 12.9764 9.57924 12.9765 9.57919C12.9766 9.57907 12.9768 9.57894 12.5 9ZM15.75 10.3384C15.753 9.89379 15.488 9.48601 15.0873 9.30423L14.4675 10.6702C14.395 10.6373 14.3425 10.5872 14.3083 10.534C14.2742 10.4809 14.2495 10.4109 14.25 10.3283L15.75 10.3384ZM9.91269 9.30423C9.51203 9.48601 9.24702 9.89379 9.25002 10.3384L10.75 10.3283C10.7505 10.4109 10.7258 10.4809 10.6917 10.534C10.6575 10.5872 10.605 10.6373 10.5325 10.6702L9.91269 9.30423ZM9.25001 11.9954C9.25002 13.7841 10.4626 15.053 11.9569 15.622L12.4908 14.2202C11.4121 13.8095 10.75 13.001 10.75 11.9954L9.25001 11.9954ZM13.0431 15.622C14.5374 15.053 15.75 13.7841 15.75 11.9954L14.25 11.9954C14.25 13.001 13.5879 13.8095 12.5092 14.2202L13.0431 15.622Z" fill="black"/>
</svg>

<svg width="16" height="16" viewBox="0 0 16 16" fill="none" xmlns="http://www.w3.org/2000/svg"><path d="M5.786 12.524a.75.75 0 0 0 .428-1.438l-.428 1.438Zm-4.83 2.394a.75.75 0 1 0 1.492.164l-1.491-.164ZM10 10.333h.75v-.005l-.75.005Zm0 1.662h-.75.75Zm2.224 2.926-.267.701.267-.7Zm.552 0 .267.701-.267-.7ZM15 11.995h.75H15Zm0-1.662-.75-.005v.005H15Zm-.223-.346.31-.683a.75.75 0 0 0-.225-.062l-.085.745ZM12.5 9l.477-.579a.75.75 0 0 0-.954 0L12.5 9Zm-2.277.987-.085-.745a.75.75 0 0 0-.225.062l.31.683ZM8.25 5A3.25 3.25 0 0 1 5 8.25v1.5A4.75 4.75 0 0 0 9.75 5h-1.5ZM5 8.25A3.25 3.25 0 0 1 1.75 5H.25A4.75 4.75 0 0 0 5 9.75v-1.5ZM1.75 5A3.25 3.25 0 0 1 5 1.75V.25A4.75 4.75 0 0 0 .25 5h1.5ZM5 1.75A3.25 3.25 0 0 1 8.25 5h1.5A4.75 4.75 0 0 0 5 .25v1.5Zm0 10.667c.296 0 .557.039.786.107l.428-1.438A4.242 4.242 0 0 0 5 10.916v1.5Zm-2.552 2.665c.09-.83.373-1.499.789-1.95.402-.435.971-.715 1.763-.715v-1.5c-1.19 0-2.166.44-2.866 1.198-.685.743-1.061 1.741-1.177 2.803l1.49.164Zm6.802-4.749v1.662h1.5v-1.662h-1.5Zm2.707 5.289c.06.023.139.053.212.076.083.025.196.052.331.052s.248-.027.33-.052c.074-.023.153-.053.213-.076l-.534-1.402-.046.018a2.316 2.316 0 0 1-.07.025.453.453 0 0 1 .186-.006c.02.003.03.007.027.006a1.327 1.327 0 0 1-.069-.025l-.046-.018-.534 1.402Zm3.793-3.627v-1.662h-1.5v1.662h1.5Zm-.888-2.753c-.492-.056-.963-.255-1.329-.458a4.716 4.716 0 0 1-.53-.343l-.024-.018a.119.119 0 0 1-.004-.003h.001L12.5 9c-.477.579-.477.58-.476.58l.002.002c.002 0 .003.002.005.003a2.208 2.208 0 0 0 .06.047 6.222 6.222 0 0 0 .715.464c.46.255 1.127.55 1.887.636l.17-1.49ZM12.5 9c-.477-.579-.477-.58-.476-.58h.001s-.002 0-.004.003l-.024.018a4.719 4.719 0 0 1-.53.343c-.366.203-.837.402-1.33.458l.17 1.49c.76-.086 1.427-.38 1.887-.636a6.222 6.222 0 0 0 .775-.51l.005-.005h.001l.001-.002L12.5 9Zm3.25 1.338a1.134 1.134 0 0 0-.663-1.034l-.62 1.366a.37.37 0 0 1-.217-.342l1.5.01ZM9.913 9.304c-.401.182-.666.59-.663 1.034l1.5-.01a.37.37 0 0 1-.217.342l-.62-1.366Zm-.663 2.691c0 1.79 1.213 3.058 2.707 3.627l.534-1.402c-1.079-.41-1.741-1.219-1.741-2.225h-1.5Zm3.793 3.627c1.494-.569 2.707-1.838 2.707-3.627h-1.5c0 1.006-.662 1.815-1.74 2.225l.533 1.402Z" fill="#000"/></svg>
